;FLAVOR:UltiGCode
;TIME:8029
;MATERIAL:11037
;MATERIAL2:0
;NOZZLE_DIAMETER:0.4
;MINX:17.572
;MINY:17.27
;MINZ:0.3
;MAXX:102.428
;MAXY:102.73
;MAXZ:15.5
;Generated with Cura_SteamEngine 4.2.1
M82 ;absolute extrusion mode

G92 E0
G92 E0
G10
;LAYER_COUNT:153
;LAYER:0
M107
G0 F3600 X21.6 Y30.095 Z0.3
;TYPE:SKIRT
G11
G1 F1800 X22.248 Y29.644 E0.09474
G1 X22.934 Y29.264 E0.18885
G1 X23.325 Y29.072 E0.24112
G1 X24.051 Y28.76 E0.33594
G1 X24.819 Y28.519 E0.43253
G1 X25.231 Y28.413 E0.48358
G1 X26.005 Y28.255 E0.57838
G1 X27.11 Y28.167 E0.7114
G1 X30.123 Y28.142 E1.07297
G1 X30.189 Y28.142 E1.08089
G1 X43.281 Y28.143 E2.65193
G1 X46.228 Y28.129 E3.00557
G1 X49.088 Y23.172 E3.69232
G1 X49.459 Y22.589 E3.77525
G1 X49.859 Y22.019 E3.85881
G1 X50.345 Y21.397 E3.95353
G1 X50.729 Y20.985 E4.02111
G1 X51.224 Y20.49 E4.10512
G1 X51.81 Y19.96 E4.19993
G1 X52.263 Y19.617 E4.26812
G1 X52.831 Y19.219 E4.35135
G1 X53.5 Y18.799 E4.44613
G1 X53.998 Y18.544 E4.51327
G1 X54.632 Y18.247 E4.59729
G1 X55.363 Y17.948 E4.69206
G1 X55.936 Y17.772 E4.76399
G1 X56.609 Y17.593 E4.84756
G1 X57.382 Y17.429 E4.94239
G1 X57.933 Y17.361 E5.00901
G1 X58.629 Y17.3 E5.09285
G1 X59.31 Y17.27 E5.17465
G1 X60.585 Y17.27 E5.32765
G1 X61.177 Y17.293 E5.39874
G1 X61.978 Y17.354 E5.49514
G1 X62.762 Y17.453 E5.58997
G1 X63.391 Y17.593 E5.66729
G1 X64.064 Y17.772 E5.75086
G1 X64.816 Y18.013 E5.84562
G1 X65.368 Y18.247 E5.91757
G1 X66.002 Y18.544 E6.00158
G1 X66.699 Y18.914 E6.09628
G1 X67.169 Y19.219 E6.16351
G1 X67.737 Y19.617 E6.24674
G1 X68.36 Y20.102 E6.34148
G1 X68.776 Y20.49 E6.40974
G1 X69.271 Y20.985 E6.49375
G1 X69.801 Y21.571 E6.58856
G1 X70.142 Y22.022 E6.65641
G1 X70.541 Y22.591 E6.73981
G1 X70.911 Y23.171 E6.82236
G1 X73.774 Y28.133 E7.50981
G1 X75.541 Y28.142 E7.72185
G1 X92.499 Y28.143 E9.75681
G1 X93.468 Y28.203 E9.87331
G1 X94.003 Y28.27 E9.93802
G1 X94.781 Y28.408 E10.03283
G1 X95.749 Y28.698 E10.15409
G1 X96.153 Y28.848 E10.20581
G1 X96.878 Y29.16 E10.30052
G1 X97.561 Y29.538 E10.3942
G1 X97.924 Y29.764 E10.44551
G1 X98.572 Y30.215 E10.54025
G1 X99.171 Y30.729 E10.63496
G1 X99.486 Y31.028 E10.68708
G1 X100.03 Y31.6 E10.78181
G1 X100.506 Y32.212 E10.87485
G1 X100.751 Y32.562 E10.92611
G1 X101.171 Y33.231 E11.0209
G1 X101.529 Y33.96 E11.11836
G1 X101.698 Y34.354 E11.16981
G1 X101.973 Y35.095 E11.26465
G1 X102.227 Y36.168 E11.39697
G1 X102.321 Y36.742 E11.46677
G1 X102.409 Y37.527 E11.56156
G1 X102.424 Y37.991 E11.61727
G1 X102.428 Y40.542 E11.92339
G1 X102.428 Y40.554 E11.92483
G1 X102.427 Y81.928 E16.88971
G1 X102.355 Y82.989 E17.01732
G1 X102.285 Y83.499 E17.0791
G1 X102.138 Y84.275 E17.17387
G1 X101.863 Y85.169 E17.28611
G1 X101.666 Y85.696 E17.35363
G1 X101.353 Y86.421 E17.44839
G1 X100.759 Y87.426 E17.58848
G1 X100.515 Y87.776 E17.63968
G1 X100.031 Y88.4 E17.73444
G1 X99.486 Y88.972 E17.82925
G1 X99.171 Y89.271 E17.88137
G1 X98.571 Y89.785 E17.97617
G1 X97.924 Y90.236 E18.07082
G1 X97.561 Y90.462 E18.12213
G1 X96.87 Y90.844 E18.21688
G1 X96.153 Y91.152 E18.31052
G1 X95.749 Y91.302 E18.36223
G1 X94.996 Y91.539 E18.45696
G1 X94.049 Y91.724 E18.57275
G1 X93.546 Y91.79 E18.63363
G1 X92.531 Y91.856 E18.75568
G1 X76.72 Y91.857 E20.653
G1 X73.772 Y91.871 E21.00677
G1 X70.912 Y96.828 E21.69351
G1 X70.541 Y97.411 E21.77644
G1 X70.141 Y97.981 E21.86
G1 X69.655 Y98.603 E21.95472
G1 X69.271 Y99.015 E22.02231
G1 X68.776 Y99.51 E22.10631
G1 X68.19 Y100.04 E22.20113
G1 X67.737 Y100.383 E22.26931
G1 X67.169 Y100.781 E22.35254
G1 X66.5 Y101.201 E22.44733
G1 X66.002 Y101.456 E22.51447
G1 X65.368 Y101.753 E22.59848
G1 X64.637 Y102.052 E22.69326
G1 X64.064 Y102.228 E22.76519
G1 X63.391 Y102.407 E22.84875
G1 X62.618 Y102.571 E22.94358
G1 X62.067 Y102.639 E23.0102
G1 X61.371 Y102.7 E23.09404
G1 X60.69 Y102.73 E23.17584
G1 X59.415 Y102.73 E23.32884
G1 X58.823 Y102.707 E23.39993
G1 X58.022 Y102.646 E23.49633
G1 X57.238 Y102.547 E23.59116
G1 X56.609 Y102.407 E23.66849
G1 X55.936 Y102.228 E23.75205
G1 X55.184 Y101.987 E23.84681
G1 X54.632 Y101.753 E23.91876
G1 X53.998 Y101.456 E24.00277
G1 X53.301 Y101.086 E24.09747
G1 X52.831 Y100.781 E24.1647
G1 X52.263 Y100.383 E24.24793
G1 X51.64 Y99.898 E24.34267
G1 X51.224 Y99.51 E24.41094
G1 X50.729 Y99.015 E24.49494
G1 X50.199 Y98.429 E24.58976
G1 X49.859 Y97.981 E24.65725
G1 X49.459 Y97.411 E24.74081
G1 X49.088 Y96.828 E24.82373
G1 X46.226 Y91.867 E25.51101
G1 X44.459 Y91.858 E25.72306
G1 X27.5 Y91.857 E27.75814
G1 X26.926 Y91.836 E27.82706
G1 X26.601 Y91.812 E27.86617
G1 X25.817 Y91.714 E27.96098
G1 X25.231 Y91.587 E28.03293
G1 X24.819 Y91.481 E28.08398
G1 X24.066 Y91.246 E28.17864
G1 X23.325 Y90.928 E28.2754
G1 X22.934 Y90.736 E28.32768
G1 X22.244 Y90.353 E28.42238
G1 X21.6 Y89.905 E28.51652
G1 X21.26 Y89.642 E28.5681
G1 X20.66 Y89.127 E28.66298
G1 X20.1 Y88.536 E28.76068
G1 X19.82 Y88.208 E28.81244
G1 X19.338 Y87.582 E28.90724
G1 X18.932 Y86.929 E28.99951
G1 X18.725 Y86.556 E29.0507
G1 X18.377 Y85.847 E29.14548
G1 X18.108 Y85.123 E29.23816
G1 X17.978 Y84.712 E29.28989
G1 X17.778 Y83.948 E29.38466
G1 X17.654 Y83.138 E29.48299
G1 X17.611 Y82.709 E29.53473
G1 X17.572 Y81.931 E29.62821
G1 X17.573 Y38.071 E34.89141
G1 X17.61 Y37.316 E34.98212
G1 X17.652 Y36.884 E35.0342
G1 X17.768 Y36.103 E35.12895
G1 X17.978 Y35.287 E35.23006
G1 X18.108 Y34.876 E35.28179
G1 X18.384 Y34.136 E35.37656
G1 X18.729 Y33.435 E35.47032
G1 X18.936 Y33.063 E35.52141
G1 X19.355 Y32.394 E35.61613
G1 X19.82 Y31.792 E35.70741
G1 X20.1 Y31.464 E35.75916
G1 X20.642 Y30.89 E35.8539
G1 X21.26 Y30.358 E35.95175
G1 X21.6 Y30.095 E36.00333
G0 F3600 X21.844 Y30.412
G1 F1800 X22.476 Y29.973 E36.09567
G1 X23.11 Y29.623 E36.18258
G1 X23.501 Y29.431 E36.23485
G1 X24.208 Y29.128 E36.32715
G1 X24.919 Y28.906 E36.41653
G1 X25.331 Y28.8 E36.46758
G1 X26.085 Y28.648 E36.55989
G1 X27.114 Y28.567 E36.68375
G1 X30.127 Y28.542 E37.04532
G1 X30.189 Y28.542 E37.05276
G1 X43.283 Y28.543 E38.62404
G1 X46.459 Y28.528 E39.00516
G1 X49.435 Y23.371 E39.71965
G1 X49.787 Y22.819 E39.79822
G1 X50.187 Y22.249 E39.88178
G1 X50.661 Y21.643 E39.9741
G1 X51.011 Y21.267 E40.03574
G1 X51.506 Y20.772 E40.11975
G1 X52.078 Y20.258 E40.21203
G1 X52.493 Y19.945 E40.27441
G1 X53.061 Y19.547 E40.35763
G1 X53.713 Y19.139 E40.44993
G1 X54.168 Y18.906 E40.51127
G1 X54.802 Y18.609 E40.59529
G1 X55.514 Y18.319 E40.68754
G1 X56.039 Y18.159 E40.7534
G1 X56.712 Y17.98 E40.83697
G1 X57.465 Y17.821 E40.92932
G1 X57.968 Y17.759 E40.99014
G1 X58.664 Y17.698 E41.07398
G1 X59.31 Y17.67 E41.15157
G1 X60.585 Y17.67 E41.30457
G1 X61.147 Y17.691 E41.37206
G1 X61.948 Y17.752 E41.46846
G1 X62.711 Y17.851 E41.56079
G1 X63.288 Y17.98 E41.63173
G1 X63.961 Y18.159 E41.7153
G1 X64.693 Y18.395 E41.80759
G1 X65.198 Y18.609 E41.87341
G1 X65.832 Y18.906 E41.95743
G1 X66.511 Y19.268 E42.04976
G1 X66.939 Y19.547 E42.11107
G1 X67.507 Y19.945 E42.1943
G1 X68.114 Y20.418 E42.28664
G1 X68.494 Y20.772 E42.34896
G1 X68.989 Y21.267 E42.43297
G1 X69.503 Y21.839 E42.52525
G1 X69.815 Y22.251 E42.58727
G1 X70.214 Y22.82 E42.67066
G1 X70.564 Y23.37 E42.74889
G1 X73.542 Y28.532 E43.46402
G1 X75.539 Y28.542 E43.70366
G1 X92.499 Y28.543 E45.73886
G1 X93.419 Y28.6 E45.84948
G1 X93.954 Y28.667 E45.91418
G1 X94.711 Y28.802 E46.00645
G1 X95.61 Y29.073 E46.11913
G1 X96.014 Y29.223 E46.17084
G1 X96.72 Y29.528 E46.26313
G1 X97.349 Y29.878 E46.34951
G1 X97.712 Y30.104 E46.40082
G1 X98.343 Y30.544 E46.49313
G1 X98.896 Y31.019 E46.58061
G1 X99.211 Y31.318 E46.63273
G1 X99.74 Y31.876 E46.72499
G1 X100.178 Y32.441 E46.81078
G1 X100.423 Y32.791 E46.86205
G1 X100.831 Y33.444 E46.95445
G1 X101.162 Y34.118 E47.04455
G1 X101.331 Y34.512 E47.096
G1 X101.597 Y35.234 E47.18833
G1 X101.833 Y36.233 E47.31151
G1 X101.927 Y36.807 E47.38131
G1 X102.011 Y37.572 E47.47366
G1 X102.024 Y37.991 E47.52396
G1 X102.028 Y40.542 E47.83009
G1 X102.028 Y40.554 E47.83153
G1 X102.027 Y81.928 E52.79641
G1 X101.958 Y82.934 E52.91741
G1 X101.888 Y83.444 E52.97918
G1 X101.744 Y84.2 E53.07153
G1 X101.489 Y85.029 E53.17561
G1 X101.292 Y85.556 E53.24313
G1 X100.985 Y86.262 E53.33551
G1 X100.43 Y87.197 E53.46599
G1 X100.186 Y87.547 E53.51719
G1 X99.714 Y88.154 E53.60946
G1 X99.211 Y88.682 E53.69697
G1 X98.896 Y88.981 E53.74908
G1 X98.311 Y89.481 E53.84143
G1 X97.712 Y89.896 E53.92888
G1 X97.349 Y90.122 E53.98019
G1 X96.676 Y90.494 E54.07247
G1 X96.014 Y90.777 E54.15886
G1 X95.61 Y90.927 E54.21057
G1 X94.876 Y91.157 E54.30288
G1 X93.997 Y91.327 E54.41031
G1 X93.494 Y91.393 E54.47119
G1 X92.531 Y91.456 E54.587
G1 X76.718 Y91.457 E56.48456
G1 X73.541 Y91.472 E56.8658
G1 X70.565 Y96.629 E57.58029
G1 X70.213 Y97.181 E57.65885
G1 X69.813 Y97.751 E57.74241
G1 X69.339 Y98.357 E57.83474
G1 X68.989 Y98.733 E57.89638
G1 X68.494 Y99.228 E57.98038
G1 X67.922 Y99.742 E58.07267
G1 X67.507 Y100.055 E58.13504
G1 X66.939 Y100.453 E58.21827
G1 X66.287 Y100.861 E58.31057
G1 X65.832 Y101.094 E58.37191
G1 X65.198 Y101.391 E58.45592
G1 X64.486 Y101.681 E58.54818
G1 X63.961 Y101.841 E58.61404
G1 X63.288 Y102.02 E58.69761
G1 X62.535 Y102.179 E58.78996
G1 X62.032 Y102.241 E58.85078
G1 X61.336 Y102.302 E58.93462
G1 X60.69 Y102.33 E59.01221
G1 X59.415 Y102.33 E59.16521
G1 X58.853 Y102.309 E59.2327
G1 X58.052 Y102.248 E59.32909
G1 X57.289 Y102.149 E59.42142
G1 X56.712 Y102.02 E59.49237
G1 X56.039 Y101.841 E59.57594
G1 X55.307 Y101.605 E59.66823
G1 X54.802 Y101.391 E59.73405
G1 X54.168 Y101.094 E59.81806
G1 X53.489 Y100.732 E59.9104
G1 X53.061 Y100.453 E59.97171
G1 X52.493 Y100.055 E60.05493
G1 X51.886 Y99.582 E60.14728
G1 X51.506 Y99.228 E60.2096
G1 X51.011 Y98.733 E60.2936
G1 X50.497 Y98.161 E60.38588
G1 X50.187 Y97.751 E60.44757
G1 X49.787 Y97.181 E60.53113
G1 X49.434 Y96.628 E60.60985
G1 X46.457 Y91.468 E61.32472
G1 X44.461 Y91.458 E61.56424
G1 X27.5 Y91.457 E63.59956
G1 X26.955 Y91.437 E63.665
G1 X26.63 Y91.413 E63.70411
G1 X25.867 Y91.316 E63.79641
G1 X25.331 Y91.2 E63.86222
G1 X24.919 Y91.094 E63.91327
G1 X24.185 Y90.864 E64.00557
G1 X23.501 Y90.569 E64.09496
G1 X23.11 Y90.377 E64.14723
G1 X22.438 Y90.003 E64.23952
G1 X21.844 Y89.588 E64.32647
G1 X21.504 Y89.325 E64.37805
G1 X20.921 Y88.824 E64.4703
G1 X20.404 Y88.277 E64.56062
G1 X20.124 Y87.949 E64.61237
G1 X19.656 Y87.338 E64.70472
G1 X19.282 Y86.735 E64.78987
G1 X19.075 Y86.362 E64.84106
G1 X18.737 Y85.671 E64.93337
G1 X18.49 Y85.003 E65.01883
G1 X18.36 Y84.592 E65.07056
G1 X18.166 Y83.847 E65.16294
G1 X18.052 Y83.098 E65.25386
G1 X18.009 Y82.669 E65.3056
G1 X17.972 Y81.931 E65.39427
G1 X17.973 Y38.071 E70.65747
G1 X18.008 Y37.355 E70.74349
G1 X18.05 Y36.923 E70.79558
G1 X18.164 Y36.162 E70.88791
G1 X18.36 Y35.407 E70.98152
G1 X18.49 Y34.996 E71.03325
G1 X18.759 Y34.276 E71.12548
G1 X19.079 Y33.63 E71.21199
G1 X19.286 Y33.258 E71.26307
G1 X19.694 Y32.606 E71.35537
G1 X20.124 Y32.051 E71.43962
G1 X20.404 Y31.723 E71.49137
G1 X20.933 Y31.165 E71.58364
G1 X21.504 Y30.675 E71.67393
G1 X21.844 Y30.412 E71.72551
G0 F3600 X22.089 Y30.728
G1 F1800 X22.704 Y30.303 E71.81522
G1 X23.287 Y29.982 E71.89508
G1 X23.678 Y29.79 E71.94736
G1 X24.366 Y29.496 E72.03714
G1 X25.019 Y29.294 E72.11916
G1 X25.431 Y29.188 E72.17021
G1 X26.164 Y29.04 E72.25995
G1 X27.117 Y28.967 E72.37464
G1 X30.13 Y28.942 E72.73621
G1 X30.189 Y28.942 E72.74329
G1 X43.285 Y28.943 E74.31481
G1 X46.691 Y28.926 E74.72354
G1 X49.781 Y23.571 E75.46545
G1 X50.114 Y23.049 E75.53975
G1 X50.514 Y22.479 E75.62331
G1 X50.976 Y21.891 E75.71304
G1 X51.294 Y21.55 E75.769
G1 X51.789 Y21.055 E75.853
G1 X52.346 Y20.555 E75.94282
G1 X52.722 Y20.272 E75.99929
G1 X53.29 Y19.874 E76.08252
G1 X53.925 Y19.478 E76.17232
G1 X54.337 Y19.268 E76.22781
G1 X54.971 Y18.971 E76.31183
G1 X55.665 Y18.69 E76.40168
G1 X56.142 Y18.545 E76.4615
G1 X56.815 Y18.366 E76.54507
G1 X57.547 Y18.213 E76.63481
G1 X58.003 Y18.158 E76.68992
G1 X58.699 Y18.097 E76.77376
G1 X59.31 Y18.07 E76.84716
G1 X60.585 Y18.07 E77.00016
G1 X61.117 Y18.09 E77.06404
G1 X61.918 Y18.151 E77.16044
G1 X62.659 Y18.248 E77.25012
G1 X63.185 Y18.366 E77.31481
G1 X63.858 Y18.545 E77.39837
G1 X64.57 Y18.776 E77.4882
G1 X65.029 Y18.971 E77.54804
G1 X65.663 Y19.268 E77.63206
G1 X66.322 Y19.621 E77.72177
G1 X66.71 Y19.874 E77.77735
G1 X67.278 Y20.272 E77.86058
G1 X67.867 Y20.734 E77.95041
G1 X68.211 Y21.055 E78.00687
G1 X68.706 Y21.55 E78.09087
G1 X69.206 Y22.107 E78.18069
G1 X69.487 Y22.481 E78.23683
G1 X69.886 Y23.05 E78.32022
G1 X70.218 Y23.57 E78.39426
G1 X73.311 Y28.93 E79.13687
G1 X75.537 Y28.942 E79.40399
G1 X92.499 Y28.943 E81.43943
G1 X93.369 Y28.997 E81.54403
G1 X93.904 Y29.064 E81.60873
G1 X94.64 Y29.197 E81.69848
G1 X95.47 Y29.448 E81.80254
G1 X95.874 Y29.598 E81.85425
G1 X96.561 Y29.895 E81.94406
G1 X97.138 Y30.218 E82.02342
G1 X97.501 Y30.444 E82.07473
G1 X98.114 Y30.872 E82.16444
G1 X98.62 Y31.309 E82.24467
G1 X98.935 Y31.608 E82.29679
G1 X99.449 Y32.151 E82.38651
G1 X99.851 Y32.671 E82.46539
G1 X100.096 Y33.021 E82.51665
G1 X100.491 Y33.656 E82.60639
G1 X100.794 Y34.276 E82.6892
G1 X100.963 Y34.67 E82.74065
G1 X101.221 Y35.372 E82.8304
G1 X101.438 Y36.298 E82.94453
G1 X101.532 Y36.872 E83.01433
G1 X101.613 Y37.615 E83.10401
G1 X101.624 Y37.992 E83.14927
G1 X101.628 Y40.543 E83.45539
G1 X101.628 Y40.554 E83.45671
G1 X101.627 Y81.928 E88.42159
G1 X101.562 Y82.88 E88.5361
G1 X101.492 Y83.39 E88.59787
G1 X101.351 Y84.124 E88.68756
G1 X101.114 Y84.889 E88.78367
G1 X100.917 Y85.416 E88.85118
G1 X100.618 Y86.102 E88.94098
G1 X100.102 Y86.968 E89.06195
G1 X99.858 Y87.318 E89.11315
G1 X99.398 Y87.908 E89.20293
G1 X98.935 Y88.392 E89.2833
G1 X98.62 Y88.691 E89.33542
G1 X98.051 Y89.176 E89.42514
G1 X97.501 Y89.556 E89.50536
G1 X97.138 Y89.782 E89.55667
G1 X96.482 Y90.143 E89.64652
G1 X95.874 Y90.402 E89.72583
G1 X95.47 Y90.552 E89.77754
G1 X94.756 Y90.775 E89.8673
G1 X93.945 Y90.931 E89.96641
G1 X93.442 Y90.997 E90.02728
G1 X92.531 Y91.056 E90.13683
G1 X76.716 Y91.057 E92.03463
G1 X73.309 Y91.074 E92.44348
G1 X70.219 Y96.429 E93.18539
G1 X69.886 Y96.951 E93.25969
G1 X69.486 Y97.521 E93.34325
G1 X69.024 Y98.109 E93.43298
G1 X68.706 Y98.45 E93.48893
G1 X68.211 Y98.945 E93.57294
G1 X67.654 Y99.445 E93.66276
G1 X67.278 Y99.728 E93.71923
G1 X66.71 Y100.126 E93.80246
G1 X66.075 Y100.522 E93.89226
G1 X65.663 Y100.732 E93.94775
G1 X65.029 Y101.029 E94.03177
G1 X64.335 Y101.31 E94.12161
G1 X63.858 Y101.455 E94.18144
G1 X63.185 Y101.634 E94.26501
G1 X62.453 Y101.787 E94.35475
G1 X61.997 Y101.842 E94.40986
G1 X61.301 Y101.903 E94.4937
G1 X60.69 Y101.93 E94.56709
G1 X59.415 Y101.93 E94.72009
G1 X58.883 Y101.91 E94.78398
G1 X58.082 Y101.849 E94.88038
G1 X57.341 Y101.752 E94.97006
G1 X56.815 Y101.634 E95.03475
G1 X56.142 Y101.455 E95.11831
G1 X55.43 Y101.224 E95.20814
G1 X54.971 Y101.029 E95.26798
G1 X54.337 Y100.732 E95.352
G1 X53.678 Y100.379 E95.44171
G1 X53.29 Y100.126 E95.49729
G1 X52.722 Y99.728 E95.58052
G1 X52.133 Y99.266 E95.67035
G1 X51.789 Y98.945 E95.72681
G1 X51.294 Y98.45 E95.81081
G1 X50.794 Y97.893 E95.90063
G1 X50.514 Y97.521 E95.9565
G1 X50.114 Y96.951 E96.04007
G1 X49.781 Y96.428 E96.11447
G1 X46.689 Y91.07 E96.85681
G1 X44.463 Y91.058 E97.12393
G1 X27.5 Y91.057 E99.15949
G1 X26.984 Y91.038 E99.22145
G1 X26.659 Y91.014 E99.26056
G1 X25.917 Y90.919 E99.35033
G1 X25.431 Y90.812 E99.41004
G1 X25.019 Y90.706 E99.46109
G1 X24.305 Y90.481 E99.55093
G1 X23.678 Y90.21 E99.63289
G1 X23.287 Y90.018 E99.68517
G1 X22.634 Y89.653 E99.77494
G1 X22.089 Y89.272 E99.85473
G1 X21.749 Y89.009 E99.90631
G1 X21.183 Y88.52 E99.99607
G1 X20.708 Y88.017 E100.07909
G1 X20.428 Y87.689 E100.13084
G1 X19.973 Y87.095 E100.22063
G1 X19.631 Y86.541 E100.29876
G1 X19.424 Y86.168 E100.34995
G1 X19.097 Y85.495 E100.43974
G1 X18.871 Y84.882 E100.51814
G1 X18.741 Y84.471 E100.56987
G1 X18.554 Y83.747 E100.6596
G1 X18.45 Y83.058 E100.74321
G1 X18.407 Y82.629 E100.79495
G1 X18.372 Y81.931 E100.87882
G1 X18.373 Y38.071 E106.14202
G1 X18.406 Y37.394 E106.22335
G1 X18.448 Y36.962 E106.27544
G1 X18.56 Y36.222 E106.36525
G1 X18.741 Y35.528 E106.45132
G1 X18.871 Y35.117 E106.50304
G1 X19.134 Y34.417 E106.59278
G1 X19.428 Y33.824 E106.6722
G1 X19.635 Y33.452 E106.72329
G1 X20.033 Y32.819 E106.81302
G1 X20.428 Y32.311 E106.89023
G1 X20.708 Y31.983 E106.94199
G1 X21.223 Y31.441 E107.0317
