;FLAVOR:UltiGCode
;TIME:5027
;MATERIAL:6477
;MATERIAL2:0
;NOZZLE_DIAMETER:0.4
;MINX:18.6
;MINY:29.17
;MINZ:0.3
;MAXX:101.4
;MAXY:90.83
;MAXZ:3.5
;Generated with Cura_SteamEngine 4.2.1
M82 ;absolute extrusion mode

G92 E0
G92 E0
G10
;LAYER_COUNT:33
;LAYER:0
M107
G0 F3600 X22.333 Y30.836 Z0.3
;TYPE:SKIRT
G11
G1 F1800 X22.991 Y30.4 E0.09472
G1 X23.69 Y30.032 E0.18952
G1 X24.114 Y29.85 E0.24488
G1 X24.381 Y29.745 E0.27931
G1 X25.13 Y29.494 E0.37411
G1 X26.247 Y29.267 E0.51089
G1 X26.513 Y29.233 E0.54307
G1 X27.502 Y29.17 E0.66199
G1 X52.6 Y29.17 E3.67375
G1 X53.389 Y29.21 E3.76855
G1 X54.11 Y29.32 E3.85607
G1 X65.905 Y29.32 E5.27147
G1 X66.021 Y29.293 E5.28576
G1 X66.805 Y29.193 E5.3806
G1 X67.4 Y29.17 E5.45206
G1 X92.498 Y29.17 E8.46382
G1 X93.643 Y29.254 E8.60159
G1 X93.953 Y29.3 E8.63919
G1 X94.727 Y29.456 E8.73394
G1 X95.482 Y29.689 E8.82876
G1 X95.96 Y29.881 E8.89057
G1 X96.218 Y29.995 E8.92442
G1 X96.924 Y30.351 E9.0193
G1 X97.589 Y30.776 E9.11401
G1 X97.922 Y31.026 E9.16397
G1 X98.147 Y31.205 E9.19848
G1 X98.739 Y31.727 E9.29319
G1 X99.276 Y32.307 E9.38804
G1 X99.564 Y32.673 E9.44393
G1 X99.734 Y32.903 E9.47825
G1 X100.17 Y33.561 E9.57297
G1 X100.538 Y34.26 E9.66776
G1 X100.718 Y34.679 E9.72248
G1 X100.824 Y34.948 E9.75718
G1 X101.076 Y35.697 E9.85201
G1 X101.305 Y36.83 E9.99072
G1 X101.338 Y37.091 E10.02229
G1 X101.4 Y38.069 E10.13989
G1 X101.4 Y81.928 E15.40297
G1 X101.315 Y83.077 E15.54122
G1 X101.269 Y83.386 E15.57871
G1 X101.113 Y84.16 E15.67346
G1 X100.88 Y84.914 E15.76816
G1 X100.699 Y85.366 E15.82659
G1 X100.586 Y85.624 E15.86039
G1 X100.233 Y86.331 E15.95521
G1 X99.81 Y86.998 E16.04999
G1 X99.542 Y87.354 E16.10346
G1 X99.362 Y87.58 E16.13814
G1 X98.84 Y88.172 E16.23285
G1 X98.26 Y88.709 E16.3277
G1 X97.897 Y88.994 E16.38308
G1 X97.667 Y89.164 E16.4174
G1 X97.009 Y89.6 E16.51212
G1 X96.31 Y89.968 E16.60692
G1 X95.886 Y90.15 E16.66229
G1 X95.619 Y90.255 E16.69671
G1 X94.87 Y90.506 E16.79151
G1 X93.753 Y90.733 E16.92829
G1 X93.487 Y90.767 E16.96047
G1 X92.498 Y90.83 E17.07939
G1 X67.4 Y90.83 E20.09115
G1 X66.611 Y90.79 E20.18595
G1 X65.889 Y90.68 E20.27359
G1 X54.099 Y90.679 E21.68839
G1 X53.979 Y90.707 E21.70317
G1 X53.195 Y90.807 E21.79802
G1 X52.6 Y90.83 E21.86947
G1 X27.502 Y90.83 E24.88123
G1 X26.357 Y90.746 E25.019
G1 X26.047 Y90.7 E25.05661
G1 X25.273 Y90.544 E25.15135
G1 X24.518 Y90.311 E25.24617
G1 X24.04 Y90.119 E25.30799
G1 X23.782 Y90.005 E25.34183
G1 X23.076 Y89.649 E25.43671
G1 X22.411 Y89.224 E25.53142
G1 X22.078 Y88.974 E25.58139
G1 X21.853 Y88.795 E25.61589
G1 X21.261 Y88.273 E25.7106
G1 X20.724 Y87.693 E25.80545
G1 X20.436 Y87.327 E25.86134
G1 X20.266 Y87.097 E25.89566
G1 X19.83 Y86.439 E25.99038
G1 X19.462 Y85.74 E26.08518
G1 X19.282 Y85.321 E26.1399
G1 X19.176 Y85.052 E26.17459
G1 X18.924 Y84.303 E26.26943
G1 X18.695 Y83.17 E26.40814
G1 X18.662 Y82.909 E26.4397
G1 X18.6 Y81.931 E26.5573
G1 X18.6 Y38.072 E31.82038
G1 X18.684 Y36.927 E31.95815
G1 X18.73 Y36.617 E31.99576
G1 X18.886 Y35.843 E32.0905
G1 X19.119 Y35.088 E32.18532
G1 X19.306 Y34.623 E32.24546
G1 X19.419 Y34.366 E32.27915
G1 X19.773 Y33.66 E32.37393
G1 X20.196 Y32.993 E32.46871
G1 X20.458 Y32.646 E32.52088
G1 X20.638 Y32.42 E32.55555
G1 X21.16 Y31.828 E32.65026
G1 X21.74 Y31.291 E32.74512
G1 X22.103 Y31.006 E32.8005
G1 X22.333 Y30.836 E32.83482
G0 F3600 X22.571 Y31.158
G1 F1800 X23.212 Y30.734 E32.92704
G1 X23.894 Y30.378 E33.01936
G1 X24.261 Y30.222 E33.06722
G1 X24.528 Y30.117 E33.10164
G1 X25.257 Y29.873 E33.19389
G1 X26.298 Y29.664 E33.32131
G1 X26.564 Y29.63 E33.35349
G1 X27.502 Y29.57 E33.46628
G1 X52.6 Y29.57 E36.47804
G1 X53.368 Y29.61 E36.57032
G1 X54.071 Y29.72 E36.65571
G1 X65.961 Y29.72 E38.08251
G1 X66.21 Y29.666 E38.11308
G1 X66.975 Y29.582 E38.20543
G1 X67.4 Y29.57 E38.25645
G1 X92.498 Y29.57 E41.26821
G1 X93.584 Y29.65 E41.39889
G1 X93.894 Y29.696 E41.43649
G1 X94.648 Y29.848 E41.5288
G1 X95.382 Y30.078 E41.6211
G1 X95.799 Y30.247 E41.67509
G1 X96.057 Y30.361 E41.70894
G1 X96.743 Y30.708 E41.80119
G1 X97.673 Y31.339 E41.93605
G1 X97.898 Y31.518 E41.97056
G1 X98.474 Y32.028 E42.06288
G1 X98.994 Y32.594 E42.15511
G1 X99.242 Y32.911 E42.20341
G1 X99.412 Y33.141 E42.23773
G1 X99.836 Y33.782 E42.32995
G1 X100.192 Y34.464 E42.42227
G1 X100.346 Y34.826 E42.46948
G1 X100.452 Y35.095 E42.50418
G1 X100.696 Y35.824 E42.59643
G1 X100.909 Y36.88 E42.7257
G1 X100.942 Y37.141 E42.75727
G1 X101 Y38.069 E42.86884
G1 X101 Y81.928 E48.13192
G1 X100.919 Y83.018 E48.26308
G1 X100.873 Y83.327 E48.30057
G1 X100.721 Y84.08 E48.39276
G1 X100.491 Y84.814 E48.48506
G1 X100.332 Y85.206 E48.53582
G1 X100.219 Y85.464 E48.56962
G1 X99.875 Y86.151 E48.66182
G1 X99.229 Y87.105 E48.80008
G1 X99.049 Y87.331 E48.83475
G1 X98.54 Y87.907 E48.92699
G1 X97.973 Y88.427 E49.01931
G1 X97.659 Y88.672 E49.0671
G1 X97.429 Y88.842 E49.10142
G1 X96.788 Y89.266 E49.19365
G1 X96.106 Y89.622 E49.28597
G1 X95.739 Y89.778 E49.33382
G1 X95.472 Y89.883 E49.36825
G1 X94.743 Y90.127 E49.4605
G1 X93.702 Y90.336 E49.58791
G1 X93.436 Y90.37 E49.62009
G1 X92.498 Y90.43 E49.73288
G1 X67.4 Y90.43 E52.74464
G1 X66.632 Y90.39 E52.83692
G1 X65.929 Y90.28 E52.92231
G1 X54.043 Y90.279 E54.34863
G1 X53.79 Y90.334 E54.3797
G1 X53.025 Y90.418 E54.47205
G1 X52.6 Y90.43 E54.52307
G1 X27.502 Y90.43 E57.53483
G1 X26.416 Y90.35 E57.66551
G1 X26.106 Y90.304 E57.70311
G1 X25.352 Y90.152 E57.79541
G1 X24.618 Y89.922 E57.88772
G1 X24.201 Y89.753 E57.94171
G1 X23.943 Y89.639 E57.97556
G1 X23.257 Y89.292 E58.06781
G1 X22.327 Y88.661 E58.20267
G1 X22.102 Y88.482 E58.23717
G1 X21.526 Y87.972 E58.32949
G1 X21.006 Y87.406 E58.42173
G1 X20.758 Y87.089 E58.47003
G1 X20.588 Y86.859 E58.50435
G1 X20.164 Y86.218 E58.59657
G1 X19.808 Y85.536 E58.68889
G1 X19.654 Y85.174 E58.7361
G1 X19.548 Y84.905 E58.77079
G1 X19.304 Y84.176 E58.86304
G1 X19.091 Y83.12 E58.99232
G1 X19.058 Y82.859 E59.02389
G1 X19 Y81.931 E59.13546
G1 X19 Y38.072 E64.39854
G1 X19.08 Y36.986 E64.52922
G1 X19.126 Y36.676 E64.56682
G1 X19.278 Y35.922 E64.65912
G1 X19.508 Y35.188 E64.75143
G1 X19.672 Y34.784 E64.80375
G1 X19.785 Y34.527 E64.83744
G1 X20.131 Y33.839 E64.92985
G1 X20.771 Y32.895 E65.06671
G1 X20.951 Y32.669 E65.10138
G1 X21.46 Y32.093 E65.19362
G1 X22.027 Y31.573 E65.28594
G1 X22.341 Y31.328 E65.33374
G1 X22.571 Y31.158 E65.36806
G0 F3600 X22.808 Y31.48
G1 F1800 X23.433 Y31.068 E65.45789
G1 X24.407 Y30.595 E65.58782
G1 X24.674 Y30.49 E65.62225
G1 X25.384 Y30.253 E65.71207
G1 X26.348 Y30.06 E65.83004
G1 X26.614 Y30.026 E65.86222
G1 X27.502 Y29.97 E65.969
G1 X52.6 Y29.97 E68.98076
G1 X53.347 Y30.01 E69.07052
G1 X54.029 Y30.12 E69.15342
G1 X66.007 Y30.12 E70.59078
G1 X66.396 Y30.042 E70.63839
G1 X67.4 Y29.97 E70.75918
G1 X92.498 Y29.97 E73.77094
G1 X93.525 Y30.046 E73.89452
G1 X93.835 Y30.092 E73.93212
G1 X94.568 Y30.241 E74.02188
G1 X95.281 Y30.468 E74.11167
G1 X95.637 Y30.613 E74.1578
G1 X95.895 Y30.727 E74.19165
G1 X96.562 Y31.066 E74.28143
G1 X97.424 Y31.652 E74.40651
G1 X97.649 Y31.831 E74.44102
G1 X98.209 Y32.327 E74.53078
G1 X98.92 Y33.148 E74.66111
G1 X99.09 Y33.378 E74.69543
G1 X99.502 Y34.003 E74.78526
G1 X99.974 Y34.973 E74.91471
G1 X100.08 Y35.242 E74.94941
G1 X100.316 Y35.951 E75.03908
G1 X100.512 Y36.93 E75.15889
G1 X100.545 Y37.191 E75.19046
G1 X100.6 Y38.069 E75.29603
G1 X100.6 Y81.928 E80.55911
G1 X100.524 Y82.959 E80.68316
G1 X100.478 Y83.268 E80.72065
G1 X100.328 Y84.001 E80.81043
G1 X99.966 Y85.045 E80.94303
G1 X99.853 Y85.303 E80.97683
G1 X99.517 Y85.972 E81.06667
G1 X98.917 Y86.856 E81.19487
G1 X98.737 Y87.082 E81.22954
G1 X98.24 Y87.641 E81.3193
G1 X97.422 Y88.35 E81.4492
G1 X97.192 Y88.52 E81.48352
G1 X96.567 Y88.932 E81.57335
G1 X95.593 Y89.405 E81.70329
G1 X95.326 Y89.51 E81.73771
G1 X94.616 Y89.747 E81.82754
G1 X93.652 Y89.94 E81.94551
G1 X93.386 Y89.974 E81.97769
G1 X92.498 Y90.03 E82.08446
G1 X67.4 Y90.03 E85.09622
G1 X66.653 Y89.99 E85.18599
G1 X65.97 Y89.88 E85.26901
G1 X53.997 Y89.879 E86.70577
G1 X53.604 Y89.958 E86.75387
G1 X52.6 Y90.03 E86.87466
G1 X27.502 Y90.03 E89.88642
G1 X26.475 Y89.954 E90.01
G1 X26.165 Y89.908 E90.0476
G1 X25.432 Y89.759 E90.13736
G1 X24.719 Y89.532 E90.22715
G1 X24.363 Y89.387 E90.27328
G1 X24.105 Y89.273 E90.30713
G1 X23.438 Y88.934 E90.39691
G1 X22.576 Y88.348 E90.52199
G1 X22.351 Y88.169 E90.5565
G1 X21.791 Y87.673 E90.64626
G1 X21.08 Y86.852 E90.77659
G1 X20.91 Y86.622 E90.81091
G1 X20.498 Y85.997 E90.90074
G1 X20.026 Y85.027 E91.03019
G1 X19.92 Y84.758 E91.06489
G1 X19.684 Y84.049 E91.15456
G1 X19.488 Y83.07 E91.27437
G1 X19.455 Y82.809 E91.30594
G1 X19.4 Y81.931 E91.41151
G1 X19.4 Y38.072 E96.67459
G1 X19.476 Y37.045 E96.79816
G1 X19.522 Y36.735 E96.83577
G1 X19.671 Y36.002 E96.92553
G1 X20.038 Y34.945 E97.0598
G1 X20.151 Y34.688 E97.09349
G1 X20.488 Y34.02 E97.18327
G1 X21.083 Y33.144 E97.31034
G1 X21.263 Y32.918 E97.34502
G1 X21.76 Y32.359 E97.43477
G1 X22.578 Y31.65 E97.56467
G1 X22.808 Y31.48 E97.59899
G0 F3600 X23.046 Y31.801
G1 F1800 X23.653 Y31.402 E97.68616
G1 X24.554 Y30.967 E97.80622
G1 X24.821 Y30.862 E97.84065
G1 X25.51 Y30.634 E97.92774
G1 X26.399 Y30.457 E98.03652
G1 X26.665 Y30.423 E98.0687
G1 X27.502 Y30.37 E98.16934
G1 X52.6 Y30.37 E101.1811
G1 X53.325 Y30.41 E101.26823
G1 X53.988 Y30.52 E101.34888
G1 X66.035 Y30.52 E102.79452
G1 X66.579 Y30.421 E102.86087
G1 X67.4 Y30.37 E102.95958
G1 X92.498 Y30.37 E105.97134
G1 X93.467 Y30.441 E106.08793
G1 X93.777 Y30.487 E106.12554
G1 X94.488 Y30.633 E106.21264
G1 X95.475 Y30.979 E106.33814
G1 X95.733 Y31.093 E106.37199
G1 X96.381 Y31.423 E106.45925
G1 X97.175 Y31.965 E106.57462
G1 X97.4 Y32.144 E106.60912
G1 X97.943 Y32.627 E106.69633
G1 X98.599 Y33.386 E106.81671
G1 X98.769 Y33.616 E106.85103
G1 X99.168 Y34.223 E106.9382
G1 X99.601 Y35.119 E107.05762
G1 X99.707 Y35.388 E107.09231
G1 X99.936 Y36.078 E107.17955
G1 X100.115 Y36.98 E107.2899
G1 X100.148 Y37.241 E107.32147
G1 X100.2 Y38.069 E107.42103
G1 X100.2 Y81.928 E112.68411
G1 X100.128 Y82.9 E112.80107
G1 X100.082 Y83.209 E112.83856
G1 X99.936 Y83.92 E112.92566
G1 X99.6 Y84.885 E113.04828
G1 X99.487 Y85.143 E113.08208
G1 X99.159 Y85.791 E113.16923
G1 X98.604 Y86.607 E113.28765
G1 X98.424 Y86.833 E113.32232
G1 X97.941 Y87.375 E113.40944
G1 X97.184 Y88.029 E113.52949
G1 X96.954 Y88.199 E113.56381
G1 X96.347 Y88.598 E113.65097
G1 X95.446 Y89.033 E113.77104
G1 X95.179 Y89.138 E113.80546
G1 X94.49 Y89.366 E113.89255
G1 X93.601 Y89.543 E114.00133
G1 X93.335 Y89.577 E114.03351
G1 X92.498 Y89.63 E114.13415
G1 X67.4 Y89.63 E117.14591
G1 X66.675 Y89.59 E117.23304
G1 X66.012 Y89.48 E117.31369
G1 X53.971 Y89.479 E118.75861
G1 X53.421 Y89.579 E118.82569
G1 X52.6 Y89.63 E118.9244
G1 X27.502 Y89.63 E121.93616
G1 X26.533 Y89.559 E122.05275
G1 X26.223 Y89.513 E122.09036
G1 X25.512 Y89.367 E122.17746
G1 X24.525 Y89.021 E122.30297
G1 X24.267 Y88.907 E122.33681
G1 X23.619 Y88.577 E122.42408
G1 X22.825 Y88.035 E122.53944
G1 X22.6 Y87.856 E122.57394
G1 X22.057 Y87.373 E122.66115
G1 X21.401 Y86.614 E122.78153
G1 X21.231 Y86.384 E122.81585
G1 X20.832 Y85.777 E122.90302
G1 X20.399 Y84.881 E123.02244
G1 X20.293 Y84.612 E123.05713
G1 X20.064 Y83.922 E123.14438
G1 X19.885 Y83.02 E123.25473
G1 X19.852 Y82.759 E123.2863
G1 X19.8 Y81.931 E123.38585
G1 X19.8 Y38.072 E128.64893
G1 X19.871 Y37.103 E128.76552
G1 X19.917 Y36.793 E128.80313
G1 X20.063 Y36.082 E128.89023
G1 X20.404 Y35.106 E129.01429
G1 X20.517 Y34.849 E129.04798
G1 X20.846 Y34.201 E129.13519
G1 X21.396 Y33.393 E129.25248
G1 X21.576 Y33.167 E129.28715
G1 X22.059 Y32.625 E129.37427
G1 X22.816 Y31.971 E129.49432
G1 X23.046 Y31.801 E129.52864
G0 F3600 X23.284 Y32.123
G1 F1800 X23.873 Y31.737 E129.61314
G1 X24.7 Y31.339 E129.72328
G1 X24.967 Y31.234 E129.75771
G1 X25.636 Y31.014 E129.84222
G1 X26.45 Y30.854 E129.94177
G1 X26.716 Y30.82 E129.97394
G1 X27.502 Y30.77 E130.06846
G1 X52.6 Y30.77 E133.08022
G1 X53.303 Y30.81 E133.16471
G1 X53.945 Y30.92 E133.24287
G1 X66.049 Y30.92 E134.69535
G1 X66.063 Y30.916 E134.6971
G1 X66.758 Y30.803 E134.7816
G1 X67.4 Y30.77 E134.85874
G1 X92.498 Y30.77 E137.8705
G1 X93.408 Y30.837 E137.97999
G1 X93.718 Y30.883 E138.0176
G1 X94.407 Y31.026 E138.10204
G1 X95.314 Y31.345 E138.21742
G1 X95.572 Y31.459 E138.25127
G1 X96.199 Y31.78 E138.33579
G1 X96.926 Y32.278 E138.44154
G1 X97.151 Y32.457 E138.47604
G1 X97.676 Y32.926 E138.56052
G1 X98.277 Y33.624 E138.67105
G1 X98.447 Y33.854 E138.70537
G1 X98.833 Y34.443 E138.78988
G1 X99.229 Y35.266 E138.89947
G1 X99.335 Y35.535 E138.93417
G1 X99.556 Y36.204 E139.01872
G1 X99.718 Y37.03 E139.11972
G1 X99.751 Y37.291 E139.15129
G1 X99.8 Y38.069 E139.24484
G1 X99.8 Y81.928 E144.50792
G1 X99.732 Y82.841 E144.61778
G1 X99.686 Y83.15 E144.65527
G1 X99.543 Y83.839 E144.73971
G1 X99.233 Y84.724 E144.85224
G1 X99.12 Y84.982 E144.88604
G1 X98.802 Y85.61 E144.97051
G1 X98.291 Y86.358 E145.07922
G1 X98.111 Y86.584 E145.11389
G1 X97.642 Y87.109 E145.19836
G1 X96.946 Y87.707 E145.30848
G1 X96.716 Y87.877 E145.3428
G1 X96.127 Y88.263 E145.4273
G1 X95.3 Y88.661 E145.53744
G1 X95.033 Y88.766 E145.57187
G1 X94.364 Y88.986 E145.65638
G1 X93.55 Y89.146 E145.75593
G1 X93.284 Y89.18 E145.78811
G1 X92.498 Y89.23 E145.88262
G1 X67.4 Y89.23 E148.89438
G1 X66.697 Y89.19 E148.97887
G1 X66.055 Y89.08 E149.05704
G1 X53.955 Y89.079 E150.50904
G1 X53.937 Y89.084 E150.51128
G1 X53.242 Y89.197 E150.59577
G1 X52.6 Y89.23 E150.67291
G1 X27.502 Y89.23 E153.68467
G1 X26.592 Y89.163 E153.79417
G1 X26.282 Y89.117 E153.83178
G1 X25.593 Y88.974 E153.91622
G1 X24.686 Y88.655 E154.03159
G1 X24.428 Y88.541 E154.06544
G1 X23.801 Y88.22 E154.14997
G1 X23.074 Y87.722 E154.25571
G1 X22.849 Y87.543 E154.29022
G1 X22.324 Y87.074 E154.37469
G1 X21.723 Y86.376 E154.48523
G1 X21.553 Y86.146 E154.51955
G1 X21.167 Y85.557 E154.60405
G1 X20.771 Y84.734 E154.71365
G1 X20.665 Y84.465 E154.74835
G1 X20.444 Y83.796 E154.83289
G1 X20.282 Y82.97 E154.9339
G1 X20.249 Y82.709 E154.96547
G1 X20.2 Y81.931 E155.05901
G1 X20.2 Y38.072 E160.32209
G1 X20.267 Y37.162 E160.43159
G1 X20.313 Y36.852 E160.4692
G1 X20.456 Y36.163 E160.55364
G1 X20.77 Y35.267 E160.66757
G1 X20.883 Y35.01 E160.70126
G1 X21.203 Y34.382 E160.78584
G1 X21.709 Y33.642 E160.89341
G1 X21.889 Y33.416 E160.92809
G1 X22.358 Y32.891 E161.01256
G1 X23.054 Y32.293 E161.12268
G1 X23.284 Y32.123 E161.157
G0 F3600 X23.522 Y32.445
G1 F1800 X24.092 Y32.073 E161.23868
G1 X24.846 Y31.711 E161.33904
G1 X25.113 Y31.606 E161.37347
G1 X25.761 Y31.395 E161.45525
G1 X26.501 Y31.251 E161.54572
G1 X26.767 Y31.217 E161.5779
G1 X27.502 Y31.17 E161.66628
G1 X52.6 Y31.17 E164.67804
G1 X53.28 Y31.21 E164.75978
G1 X53.899 Y31.32 E164.83522
G1 X66.118 Y31.32 E166.3015
G1 X66.259 Y31.283 E166.31899
G1 X66.933 Y31.189 E166.40066
G1 X67.4 Y31.17 E166.45674
G1 X92.498 Y31.17 E169.4685
G1 X93.349 Y31.233 E169.5709
G1 X93.659 Y31.279 E169.60851
G1 X94.326 Y31.418 E169.69027
G1 X95.152 Y31.711 E169.79544
G1 X95.41 Y31.825 E169.82929
G1 X96.016 Y32.136 E169.91103
G1 X96.677 Y32.591 E170.00732
G1 X96.902 Y32.77 E170.04182
G1 X97.409 Y33.225 E170.12357
G1 X97.955 Y33.862 E170.22425
G1 X98.125 Y34.092 E170.25857
G1 X98.497 Y34.662 E170.34025
G1 X98.857 Y35.413 E170.44019
G1 X98.963 Y35.682 E170.47488
G1 X99.175 Y36.329 E170.55658
G1 X99.321 Y37.08 E170.64839
G1 X99.354 Y37.341 E170.67996
G1 X99.4 Y38.069 E170.76749
G1 X99.4 Y81.928 E176.03057
G1 X99.337 Y82.782 E176.13333
G1 X99.291 Y83.091 E176.17082
G1 X99.151 Y83.757 E176.25249
G1 X98.867 Y84.564 E176.35515
G1 X98.754 Y84.822 E176.38895
G1 X98.444 Y85.428 E176.47063
G1 X97.978 Y86.108 E176.56955
G1 X97.798 Y86.334 E176.60422
G1 X97.343 Y86.841 E176.68597
G1 X96.708 Y87.385 E176.78631
G1 X96.478 Y87.555 E176.82063
G1 X95.908 Y87.927 E176.90231
G1 X95.154 Y88.289 E177.00268
G1 X94.887 Y88.394 E177.03711
G1 X94.239 Y88.605 E177.11888
G1 X93.499 Y88.749 E177.20935
G1 X93.233 Y88.783 E177.24153
G1 X92.498 Y88.83 E177.32991
G1 X67.4 Y88.83 E180.34167
G1 X66.72 Y88.79 E180.42341
G1 X66.1 Y88.68 E180.49897
G1 X53.885 Y88.679 E181.96477
G1 X53.741 Y88.717 E181.98264
G1 X53.067 Y88.811 E182.06431
G1 X52.6 Y88.83 E182.12039
G1 X27.502 Y88.83 E185.13215
G1 X26.651 Y88.767 E185.23455
G1 X26.341 Y88.721 E185.27216
