;FLAVOR:UltiGCode
;TIME:5642
;MATERIAL:8112
;MATERIAL2:0
;NOZZLE_DIAMETER:0.4
;MINX:17.572
;MINY:17.272
;MINZ:0.3
;MAXX:102.428
;MAXY:102.728
;MAXZ:14
;Generated with Cura_SteamEngine 4.2.1
M82 ;absolute extrusion mode

G92 E0
G92 E0
G10
;LAYER_COUNT:138
;LAYER:0
M107
G0 F3600 X21.429 Y30.215 Z0.3
;TYPE:SKIRT
G11
G1 F1800 X22.076 Y29.764 E0.09464
G1 X22.439 Y29.538 E0.14595
G1 X23.13 Y29.156 E0.2407
G1 X23.847 Y28.848 E0.33434
G1 X24.251 Y28.698 E0.38606
G1 X25.004 Y28.461 E0.48079
G1 X25.951 Y28.276 E0.59658
G1 X26.454 Y28.21 E0.65745
G1 X27.469 Y28.144 E0.77951
G1 X43.71 Y28.143 E2.72843
G1 X46.227 Y28.13 E3.03047
G1 X49.088 Y23.173 E3.71728
G1 X49.456 Y22.597 E3.7993
G1 X49.856 Y22.026 E3.88296
G1 X50.341 Y21.403 E3.97771
G1 X50.729 Y20.986 E4.04606
G1 X51.224 Y20.491 E4.13006
G1 X51.81 Y19.961 E4.22488
G1 X52.263 Y19.618 E4.29306
G1 X52.831 Y19.22 E4.37629
G1 X53.5 Y18.8 E4.47108
G1 X54.007 Y18.54 E4.53945
G1 X54.641 Y18.244 E4.62341
G1 X55.373 Y17.947 E4.71821
G1 X55.926 Y17.777 E4.78763
G1 X56.599 Y17.597 E4.87123
G1 X57.371 Y17.432 E4.96597
G1 X57.944 Y17.361 E5.03525
G1 X58.64 Y17.301 E5.11908
G1 X59.31 Y17.272 E5.19956
G1 X60.585 Y17.272 E5.35256
G1 X61.177 Y17.294 E5.42365
G1 X61.979 Y17.355 E5.52016
G1 X62.762 Y17.455 E5.61489
G1 X63.395 Y17.596 E5.69271
G1 X64.067 Y17.775 E5.77616
G1 X64.818 Y18.016 E5.87081
G1 X65.368 Y18.249 E5.94248
G1 X66.002 Y18.546 E6.0265
G1 X66.699 Y18.916 E6.12119
G1 X67.169 Y19.221 E6.18843
G1 X67.737 Y19.619 E6.27166
G1 X68.36 Y20.104 E6.3664
G1 X68.776 Y20.492 E6.43466
G1 X69.271 Y20.987 E6.51867
G1 X69.801 Y21.573 E6.61348
G1 X70.142 Y22.024 E6.68133
G1 X70.541 Y22.593 E6.76472
G1 X70.911 Y23.172 E6.84718
G1 X73.772 Y28.129 E7.53399
G1 X76.716 Y28.142 E7.88727
G1 X92.5 Y28.143 E9.78135
G1 X93.074 Y28.164 E9.85027
G1 X93.399 Y28.188 E9.88938
G1 X94.183 Y28.286 E9.98419
G1 X94.769 Y28.413 E10.05615
G1 X95.181 Y28.519 E10.1072
G1 X95.934 Y28.754 E10.20185
G1 X96.675 Y29.072 E10.29862
G1 X97.066 Y29.264 E10.35089
G1 X97.756 Y29.647 E10.44559
G1 X98.4 Y30.095 E10.53973
G1 X98.74 Y30.358 E10.59131
G1 X99.34 Y30.873 E10.6862
G1 X99.9 Y31.464 E10.7839
G1 X100.18 Y31.792 E10.83565
G1 X100.662 Y32.418 E10.93046
G1 X101.064 Y33.063 E11.02166
G1 X101.271 Y33.435 E11.07274
G1 X101.619 Y34.144 E11.16752
G1 X101.892 Y34.876 E11.26127
G1 X102.022 Y35.287 E11.313
G1 X102.222 Y36.051 E11.40777
G1 X102.346 Y36.863 E11.50634
G1 X102.389 Y37.293 E11.55819
G1 X102.428 Y38.069 E11.65143
G1 X102.427 Y81.929 E16.91463
G1 X102.39 Y82.686 E17.00558
G1 X102.348 Y83.117 E17.05754
G1 X102.232 Y83.898 E17.15229
G1 X102.022 Y84.712 E17.25317
G1 X101.892 Y85.123 E17.3049
G1 X101.616 Y85.863 E17.39968
G1 X101.275 Y86.556 E17.49236
G1 X101.068 Y86.929 E17.54355
G1 X100.65 Y87.599 E17.63831
G1 X100.18 Y88.208 E17.73062
G1 X99.9 Y88.536 E17.78238
G1 X99.358 Y89.11 E17.87711
G1 X98.74 Y89.642 E17.97496
G1 X98.4 Y89.905 E18.02655
G1 X97.752 Y90.356 E18.12128
G1 X97.066 Y90.736 E18.21539
G1 X96.675 Y90.928 E18.26766
G1 X95.949 Y91.24 E18.36249
G1 X95.181 Y91.481 E18.45908
G1 X94.769 Y91.587 E18.51013
G1 X93.995 Y91.745 E18.60492
G1 X92.888 Y91.833 E18.73818
G1 X89.801 Y91.858 E19.10863
G1 X89.737 Y91.858 E19.11631
G1 X76.289 Y91.857 E20.73007
G1 X73.773 Y91.87 E21.032
G1 X70.912 Y96.827 E21.71881
G1 X70.541 Y97.409 E21.80163
G1 X70.141 Y97.979 E21.88519
G1 X69.655 Y98.601 E21.97991
G1 X69.271 Y99.013 E22.0475
G1 X68.776 Y99.508 E22.1315
G1 X68.19 Y100.038 E22.22632
G1 X67.737 Y100.381 E22.2945
G1 X67.169 Y100.779 E22.37773
G1 X66.5 Y101.199 E22.47252
G1 X66.002 Y101.454 E22.53966
G1 X65.368 Y101.751 E22.62367
G1 X64.637 Y102.05 E22.71845
G1 X64.067 Y102.225 E22.79
G1 X63.395 Y102.404 E22.87345
G1 X62.622 Y102.569 E22.9683
G1 X62.067 Y102.637 E23.0354
G1 X61.37 Y102.698 E23.11936
G1 X60.69 Y102.728 E23.20103
G1 X59.414 Y102.728 E23.35415
G1 X58.831 Y102.706 E23.42416
G1 X58.03 Y102.646 E23.52055
G1 X57.247 Y102.547 E23.61526
G1 X56.595 Y102.402 E23.69541
G1 X55.923 Y102.222 E23.7789
G1 X55.171 Y101.98 E23.87369
G1 X54.641 Y101.756 E23.94274
G1 X54.007 Y101.46 E24.0267
G1 X53.31 Y101.09 E24.1214
G1 X52.831 Y100.78 E24.18987
G1 X52.263 Y100.382 E24.27309
G1 X51.64 Y99.897 E24.36784
G1 X51.224 Y99.509 E24.4361
G1 X50.729 Y99.014 E24.5201
G1 X50.199 Y98.428 E24.61492
G1 X49.856 Y97.974 E24.6832
G1 X49.456 Y97.403 E24.76686
G1 X49.088 Y96.827 E24.84888
G1 X46.228 Y91.871 E25.53552
G1 X43.284 Y91.858 E25.88881
G1 X27.501 Y91.857 E27.78277
G1 X26.532 Y91.797 E27.89927
G1 X25.997 Y91.73 E27.96397
G1 X25.219 Y91.592 E28.05879
G1 X24.251 Y91.302 E28.18005
G1 X23.847 Y91.152 E28.23176
G1 X23.122 Y90.84 E28.32648
G1 X22.439 Y90.462 E28.42015
G1 X22.076 Y90.236 E28.47147
G1 X21.428 Y89.785 E28.5662
G1 X20.829 Y89.271 E28.66092
G1 X20.514 Y88.972 E28.71304
G1 X19.97 Y88.4 E28.80776
G1 X19.494 Y87.788 E28.9008
G1 X19.249 Y87.438 E28.95207
G1 X18.829 Y86.769 E29.04686
G1 X18.468 Y86.033 E29.14523
G1 X18.299 Y85.638 E29.19679
G1 X18.025 Y84.897 E29.29159
G1 X17.773 Y83.833 E29.4228
G1 X17.679 Y83.26 E29.49248
G1 X17.591 Y82.475 E29.58727
G1 X17.576 Y82.009 E29.64322
G1 X17.572 Y79.458 E29.94934
G1 X17.572 Y79.446 E29.95078
G1 X17.573 Y38.072 E34.91566
G1 X17.645 Y37.011 E35.04328
G1 X17.715 Y36.501 E35.10505
G1 X17.862 Y35.725 E35.19982
G1 X18.137 Y34.831 E35.31207
G1 X18.334 Y34.304 E35.37958
G1 X18.647 Y33.579 E35.47434
G1 X19.241 Y32.574 E35.61443
G1 X19.485 Y32.224 E35.66563
G1 X19.969 Y31.6 E35.76039
G1 X20.514 Y31.028 E35.8552
G1 X20.829 Y30.729 E35.90732
G1 X21.429 Y30.215 E36.00213
G0 F3600 X21.689 Y30.519
G1 F1800 X22.288 Y30.104 E36.08957
G1 X22.651 Y29.878 E36.14089
G1 X23.324 Y29.506 E36.23316
G1 X23.986 Y29.223 E36.31956
G1 X24.39 Y29.073 E36.37127
G1 X25.124 Y28.843 E36.46357
G1 X26.003 Y28.673 E36.57101
G1 X26.506 Y28.607 E36.63189
G1 X27.469 Y28.544 E36.74769
G1 X43.712 Y28.543 E38.69685
G1 X46.459 Y28.529 E39.0265
G1 X49.435 Y23.373 E39.74088
G1 X49.783 Y22.826 E39.81868
G1 X50.183 Y22.255 E39.90234
G1 X50.657 Y21.649 E39.99466
G1 X51.011 Y21.268 E40.05707
G1 X51.506 Y20.773 E40.14108
G1 X52.078 Y20.259 E40.23336
G1 X52.493 Y19.946 E40.29574
G1 X53.061 Y19.548 E40.37896
G1 X53.713 Y19.14 E40.47126
G1 X54.176 Y18.903 E40.53367
G1 X54.81 Y18.607 E40.61764
G1 X55.523 Y18.318 E40.70996
G1 X56.029 Y18.163 E40.77346
G1 X56.702 Y17.983 E40.85706
G1 X57.454 Y17.823 E40.94932
G1 X57.978 Y17.759 E41.01267
G1 X58.674 Y17.699 E41.0965
G1 X59.31 Y17.672 E41.17289
G1 X60.585 Y17.672 E41.32589
G1 X61.146 Y17.693 E41.39326
G1 X61.948 Y17.754 E41.48977
G1 X62.711 Y17.852 E41.58209
G1 X63.292 Y17.982 E41.65353
G1 X63.964 Y18.161 E41.73698
G1 X64.696 Y18.398 E41.82931
G1 X65.198 Y18.611 E41.89475
G1 X65.832 Y18.908 E41.97876
G1 X66.511 Y19.27 E42.0711
G1 X66.939 Y19.549 E42.13241
G1 X67.507 Y19.947 E42.21564
G1 X68.114 Y20.42 E42.30798
G1 X68.494 Y20.774 E42.3703
G1 X68.989 Y21.269 E42.45431
G1 X69.503 Y21.841 E42.54659
G1 X69.815 Y22.253 E42.6086
G1 X70.214 Y22.822 E42.692
G1 X70.564 Y23.372 E42.77023
G1 X73.54 Y28.528 E43.48462
G1 X76.715 Y28.542 E43.86562
G1 X92.5 Y28.543 E45.75982
G1 X93.045 Y28.563 E45.82526
G1 X93.37 Y28.587 E45.86437
G1 X94.133 Y28.684 E45.95667
G1 X94.669 Y28.8 E46.02248
G1 X95.081 Y28.906 E46.07353
G1 X95.815 Y29.136 E46.16583
G1 X96.499 Y29.431 E46.25522
G1 X96.89 Y29.623 E46.30749
G1 X97.562 Y29.997 E46.39978
G1 X98.156 Y30.412 E46.48673
G1 X98.496 Y30.675 E46.53831
G1 X99.079 Y31.176 E46.63055
G1 X99.596 Y31.723 E46.72087
G1 X99.876 Y32.051 E46.77262
G1 X100.344 Y32.662 E46.86498
G1 X100.714 Y33.258 E46.94916
G1 X100.921 Y33.63 E47.00025
G1 X101.26 Y34.32 E47.0925
G1 X101.51 Y34.996 E47.17899
G1 X101.64 Y35.407 E47.23072
G1 X101.834 Y36.152 E47.3231
G1 X101.948 Y36.903 E47.41425
G1 X101.991 Y37.333 E47.46611
G1 X102.028 Y38.069 E47.55454
G1 X102.027 Y81.929 E52.81774
G1 X101.992 Y82.647 E52.90401
G1 X101.95 Y83.078 E52.95597
G1 X101.836 Y83.838 E53.04819
G1 X101.64 Y84.592 E53.14168
G1 X101.51 Y85.003 E53.19341
G1 X101.241 Y85.723 E53.28564
G1 X100.925 Y86.362 E53.37118
G1 X100.718 Y86.735 E53.42237
G1 X100.311 Y87.387 E53.51461
G1 X99.876 Y87.949 E53.59989
G1 X99.596 Y88.277 E53.65164
G1 X99.067 Y88.835 E53.74391
G1 X98.496 Y89.325 E53.8342
G1 X98.156 Y89.588 E53.88578
G1 X97.524 Y90.027 E53.97812
G1 X96.89 Y90.377 E54.06502
G1 X96.499 Y90.569 E54.1173
G1 X95.792 Y90.872 E54.2096
G1 X95.081 Y91.094 E54.29898
G1 X94.669 Y91.2 E54.35003
G1 X93.915 Y91.352 E54.44233
G1 X92.885 Y91.433 E54.56631
G1 X89.798 Y91.458 E54.93676
G1 X89.737 Y91.458 E54.94408
G1 X76.287 Y91.457 E56.55808
G1 X73.541 Y91.471 E56.88761
G1 X70.565 Y96.627 E57.602
G1 X70.213 Y97.179 E57.68056
G1 X69.813 Y97.749 E57.76412
G1 X69.339 Y98.355 E57.85644
G1 X68.989 Y98.731 E57.91809
G1 X68.494 Y99.226 E58.00209
G1 X67.922 Y99.74 E58.09437
G1 X67.507 Y100.053 E58.15675
G1 X66.939 Y100.451 E58.23997
G1 X66.287 Y100.859 E58.33227
G1 X65.832 Y101.092 E58.39361
G1 X65.198 Y101.389 E58.47763
G1 X64.486 Y101.679 E58.56988
G1 X63.964 Y101.839 E58.6354
G1 X63.292 Y102.018 E58.71885
G1 X62.539 Y102.177 E58.8112
G1 X62.032 Y102.239 E58.8725
G1 X61.335 Y102.3 E58.95646
G1 X60.69 Y102.328 E59.03393
G1 X59.414 Y102.328 E59.18705
G1 X58.861 Y102.307 E59.25346
G1 X58.06 Y102.247 E59.34985
G1 X57.297 Y102.15 E59.44214
G1 X56.698 Y102.016 E59.5158
G1 X56.026 Y101.836 E59.59928
G1 X55.295 Y101.599 E59.6915
G1 X54.81 Y101.393 E59.75473
G1 X54.176 Y101.097 E59.83869
G1 X53.497 Y100.736 E59.93097
G1 X53.061 Y100.452 E59.99341
G1 X52.493 Y100.054 E60.07664
G1 X51.886 Y99.581 E60.16899
G1 X51.506 Y99.227 E60.23131
G1 X51.011 Y98.732 E60.31531
G1 X50.497 Y98.16 E60.40759
G1 X50.183 Y97.745 E60.47004
G1 X49.783 Y97.174 E60.5537
G1 X49.435 Y96.627 E60.6315
G1 X46.46 Y91.472 E61.34572
G1 X43.285 Y91.458 E61.72673
G1 X27.501 Y91.457 E63.62081
G1 X26.581 Y91.4 E63.73142
G1 X26.046 Y91.333 E63.79612
G1 X25.289 Y91.198 E63.88839
G1 X24.39 Y90.927 E64.00107
G1 X23.986 Y90.777 E64.05278
G1 X23.28 Y90.472 E64.14507
G1 X22.651 Y90.122 E64.23145
G1 X22.288 Y89.896 E64.28276
G1 X21.657 Y89.456 E64.37507
G1 X21.104 Y88.981 E64.46255
G1 X20.789 Y88.682 E64.51467
G1 X20.26 Y88.124 E64.60694
G1 X19.822 Y87.559 E64.69272
G1 X19.577 Y87.209 E64.74399
G1 X19.169 Y86.556 E64.83639
G1 X18.836 Y85.876 E64.92725
G1 X18.667 Y85.481 E64.9788
G1 X18.401 Y84.759 E65.07114
G1 X18.168 Y83.768 E65.1933
G1 X18.074 Y83.195 E65.26298
G1 X17.989 Y82.43 E65.35534
G1 X17.976 Y82.009 E65.40589
G1 X17.972 Y79.458 E65.71201
G1 X17.972 Y79.446 E65.71345
G1 X17.973 Y38.072 E70.67833
G1 X18.042 Y37.066 E70.79933
G1 X18.112 Y36.556 E70.8611
G1 X18.256 Y35.8 E70.95346
G1 X18.511 Y34.971 E71.05754
G1 X18.708 Y34.444 E71.12505
G1 X19.015 Y33.738 E71.21743
G1 X19.57 Y32.803 E71.34791
G1 X19.814 Y32.453 E71.39911
G1 X20.286 Y31.846 E71.49138
G1 X20.789 Y31.318 E71.57889
G1 X21.104 Y31.019 E71.63101
G1 X21.689 Y30.519 E71.72335
G0 F3600 X21.949 Y30.824
G1 F1800 X22.499 Y30.444 E71.80357
G1 X22.862 Y30.218 E71.85489
G1 X23.518 Y29.857 E71.94474
G1 X24.126 Y29.598 E72.02404
G1 X24.53 Y29.448 E72.07576
G1 X25.244 Y29.225 E72.16552
G1 X26.055 Y29.069 E72.26462
G1 X26.558 Y29.003 E72.3255
G1 X27.469 Y28.944 E72.43505
G1 X43.714 Y28.943 E74.38445
G1 X46.69 Y28.928 E74.74157
G1 X49.781 Y23.573 E75.48354
G1 X50.111 Y23.056 E75.55714
G1 X50.511 Y22.485 E75.6408
G1 X50.972 Y21.896 E75.73056
G1 X51.294 Y21.551 E75.78719
G1 X51.789 Y21.056 E75.87119
G1 X52.346 Y20.556 E75.96101
G1 X52.722 Y20.273 E76.01748
G1 X53.29 Y19.875 E76.10071
G1 X53.925 Y19.479 E76.19051
G1 X54.346 Y19.265 E76.24719
G1 X54.98 Y18.969 E76.33115
G1 X55.673 Y18.689 E76.42084
G1 X56.132 Y18.55 E76.47839
G1 X56.805 Y18.37 E76.56199
G1 X57.537 Y18.215 E76.65178
G1 X58.013 Y18.158 E76.70931
G1 X58.709 Y18.098 E76.79313
G1 X59.31 Y18.072 E76.86532
G1 X60.585 Y18.072 E77.01832
G1 X61.116 Y18.092 E77.08209
G1 X61.918 Y18.153 E77.17861
G1 X62.66 Y18.25 E77.2684
G1 X63.189 Y18.369 E77.33347
G1 X63.861 Y18.548 E77.41692
G1 X64.572 Y18.779 E77.50663
G1 X65.029 Y18.973 E77.56621
G1 X65.663 Y19.27 E77.65022
G1 X66.322 Y19.623 E77.73993
G1 X66.71 Y19.876 E77.79552
G1 X67.278 Y20.274 E77.87874
G1 X67.867 Y20.736 E77.96857
G1 X68.211 Y21.057 E78.02503
G1 X68.706 Y21.552 E78.10904
G1 X69.206 Y22.109 E78.19886
G1 X69.487 Y22.483 E78.25499
G1 X69.886 Y23.052 E78.33839
G1 X70.218 Y23.572 E78.41242
G1 X73.309 Y28.927 E79.15439
G1 X76.713 Y28.942 E79.56287
G1 X92.5 Y28.943 E81.45731
G1 X93.016 Y28.962 E81.51928
G1 X93.341 Y28.986 E81.55838
G1 X94.083 Y29.081 E81.64815
G1 X94.569 Y29.188 E81.70787
G1 X94.981 Y29.294 E81.75892
G1 X95.695 Y29.519 E81.84875
G1 X96.322 Y29.79 E81.93072
G1 X96.713 Y29.982 E81.98299
G1 X97.366 Y30.347 E82.07276
G1 X97.911 Y30.728 E82.15256
G1 X98.251 Y30.991 E82.20414
G1 X98.817 Y31.48 E82.29389
G1 X99.292 Y31.983 E82.37691
G1 X99.572 Y32.311 E82.42867
G1 X100.027 Y32.905 E82.51845
G1 X100.365 Y33.452 E82.59562
G1 X100.572 Y33.824 E82.6467
G1 X100.9 Y34.496 E82.73643
G1 X101.129 Y35.117 E82.81586
G1 X101.259 Y35.528 E82.86759
G1 X101.446 Y36.252 E82.95732
G1 X101.55 Y36.942 E83.04105
G1 X101.593 Y37.372 E83.09291
G1 X101.628 Y38.069 E83.17666
G1 X101.627 Y81.929 E88.43986
G1 X101.594 Y82.608 E88.52143
G1 X101.552 Y83.039 E88.5734
G1 X101.44 Y83.779 E88.66321
G1 X101.259 Y84.471 E88.74904
G1 X101.129 Y84.882 E88.80077
G1 X100.866 Y85.582 E88.8905
G1 X100.576 Y86.168 E88.96896
G1 X100.369 Y86.541 E89.02015
G1 X99.971 Y87.174 E89.10988
G1 X99.572 Y87.689 E89.18806
G1 X99.292 Y88.017 E89.23981
G1 X98.777 Y88.559 E89.32953
G1 X98.251 Y89.009 E89.4126
G1 X97.911 Y89.272 E89.46418
G1 X97.296 Y89.697 E89.55389
G1 X96.713 Y90.018 E89.63375
G1 X96.322 Y90.21 E89.68602
G1 X95.634 Y90.504 E89.7758
G1 X94.981 Y90.706 E89.85783
G1 X94.569 Y90.812 E89.90888
G1 X93.836 Y90.96 E89.99861
G1 X92.882 Y91.033 E90.11343
G1 X89.795 Y91.058 E90.48388
G1 X89.737 Y91.058 E90.49084
G1 X76.285 Y91.057 E92.10508
G1 X73.31 Y91.072 E92.46208
G1 X70.219 Y96.427 E93.20405
G1 X69.886 Y96.949 E93.27835
G1 X69.486 Y97.519 E93.36191
G1 X69.024 Y98.107 E93.45165
G1 X68.706 Y98.448 E93.5076
G1 X68.211 Y98.943 E93.5916
G1 X67.654 Y99.443 E93.68142
G1 X67.278 Y99.726 E93.7379
G1 X66.71 Y100.124 E93.82112
G1 X66.075 Y100.52 E93.91093
G1 X65.663 Y100.73 E93.96642
G1 X65.029 Y101.027 E94.05043
G1 X64.335 Y101.308 E94.14028
G1 X63.861 Y101.452 E94.19973
G1 X63.189 Y101.631 E94.28318
G1 X62.457 Y101.785 E94.37294
G1 X61.997 Y101.84 E94.42853
G1 X61.3 Y101.901 E94.51249
G1 X60.69 Y101.928 E94.58577
G1 X59.414 Y101.928 E94.73889
G1 X58.891 Y101.908 E94.80169
G1 X58.09 Y101.848 E94.89808
G1 X57.348 Y101.753 E94.98785
G1 X56.802 Y101.63 E95.05501
G1 X56.13 Y101.45 E95.13849
G1 X55.419 Y101.218 E95.22824
G1 X54.98 Y101.031 E95.2855
G1 X54.346 Y100.735 E95.36946
G1 X53.686 Y100.383 E95.45922
G1 X53.29 Y100.125 E95.51594
G1 X52.722 Y99.727 E95.59917
G1 X52.133 Y99.265 E95.689
G1 X51.789 Y98.944 E95.74546
G1 X51.294 Y98.449 E95.82946
G1 X50.794 Y97.892 E95.91928
G1 X50.511 Y97.515 E95.97585
G1 X50.111 Y96.944 E96.05951
G1 X49.781 Y96.427 E96.13311
G1 X46.691 Y91.073 E96.87491
G1 X43.287 Y91.058 E97.2834
G1 X27.501 Y91.057 E99.17772
G1 X26.631 Y91.003 E99.28232
G1 X26.096 Y90.936 E99.34702
G1 X25.36 Y90.803 E99.43677
G1 X24.53 Y90.552 E99.54083
G1 X24.126 Y90.402 E99.59254
G1 X23.439 Y90.105 E99.68235
G1 X22.862 Y89.782 E99.7617
G1 X22.499 Y89.556 E99.81302
G1 X21.886 Y89.128 E99.90273
G1 X21.38 Y88.691 E99.98296
G1 X21.065 Y88.392 E100.03508
G1 X20.551 Y87.849 E100.1248
G1 X20.149 Y87.329 E100.20367
G1 X19.904 Y86.979 E100.25494
G1 X19.509 Y86.344 E100.34468
G1 X19.203 Y85.719 E100.42819
G1 X19.034 Y85.324 E100.47974
G1 X18.777 Y84.621 E100.56957
G1 X18.562 Y83.703 E100.68271
G1 X18.468 Y83.13 E100.75239
G1 X18.387 Y82.387 E100.84207
G1 X18.376 Y82.008 E100.88757
G1 X18.372 Y79.457 E101.19369
G1 X18.372 Y79.446 E101.19501
G1 X18.373 Y38.072 E106.15989
G1 X18.438 Y37.12 E106.2744
G1 X18.508 Y36.61 E106.33617
G1 X18.649 Y35.876 E106.42586
G1 X18.886 Y35.111 E106.52197
G1 X19.083 Y34.584 E106.58948
G1 X19.382 Y33.898 E106.67928
G1 X19.898 Y33.032 E106.80025
G1 X20.142 Y32.682 E106.85145
G1 X20.602 Y32.092 E106.94122
G1 X21.065 Y31.608 E107.0216
G1 X21.38 Y31.309 E107.07372
